build/img/sprite.svg

<svg xmlns="http://www.w3.org/2000/svg" xmlns:xlink="http://www.w3.org/1999/xlink"><symbol id="icon-allinclusive" viewBox="0 0 38 21"><path d="M28.753 2.215L26.44 0 16.073 9.933l2.314 2.215 10.366-9.933zM35.694 0L18.38 16.57l-6.819-6.528-2.313 2.215L18.379 21 38 2.215 35.694 0zM0 12.257L9.132 21l2.314-2.215-9.132-8.743L0 12.257z" fill="#011C40"/></symbol><symbol id="icon-boat" viewBox="0 0 27 32"><path d="M4.405 16.396l8.811-6.46a.6.6 0 01.655 0l8.854 6.46V8.688c.049-1.057-.75-1.954-1.785-2.003l-.047-.002H6.237c-1.035.024-1.856.9-1.833 1.958l.001.047v7.708zM15.746 0h-4.362v5.347h4.362V0z" fill="#011C40"/><path d="M24.296 30.164L27 21.03l-3.795-2.718-.262-.134-8.941-6.37v18.801h-.48l-.83-.044V11.807L0 21.03l2.792 9.09 1.612 1.87h2.754s5.089.007 6.364 0c1.298.022 3.603 0 3.603 0h5.688l1.483-1.826z" fill="#011C40"/></symbol><symbol id="icon-cross"><path d="M1 1l6.5 6.5M14 14L7.5 7.5m0 0L14 1 1 14" stroke="#011C40" stroke-width="2"/></symbol><symbol id="icon-fb" viewBox="0 0 11 20"><path d="M7.333 11.5h2.62L11 7.5H7.333v-2c0-1.03 0-2 2.096-2H11V.14C10.659.097 9.369 0 8.007 0 5.163 0 3.143 1.657 3.143 4.7v2.8H0v4h3.143V20h4.19v-8.5z" fill="#F9FBFD"/></symbol><symbol id="icon-inst" viewBox="0 0 20 20"><path d="M10 0c2.717 0 3.056.01 4.122.06 1.065.05 1.79.217 2.428.465.66.254 1.216.598 1.772 1.153.509.5.902 1.105 1.153 1.772.247.637.415 1.363.465 2.428.047 1.066.06 1.405.06 4.122 0 2.717-.01 3.056-.06 4.122-.05 1.065-.218 1.79-.465 2.428a4.883 4.883 0 01-1.153 1.772c-.5.508-1.105.902-1.772 1.153-.637.247-1.363.415-2.428.465-1.066.047-1.405.06-4.122.06-2.717 0-3.056-.01-4.122-.06-1.065-.05-1.79-.218-2.428-.465a4.89 4.89 0 01-1.772-1.153A4.904 4.904 0 01.525 16.55C.277 15.913.11 15.187.06 14.122.013 13.056 0 12.717 0 10c0-2.717.01-3.056.06-4.122.05-1.066.217-1.79.465-2.428a4.88 4.88 0 011.153-1.772A4.897 4.897 0 013.45.525C4.088.277 4.812.11 5.878.06 6.944.013 7.283 0 10 0zm0 5a5 5 0 100 10 5 5 0 000-10zm6.5-.25a1.25 1.25 0 10-2.5 0 1.25 1.25 0 002.5 0zM10 7a3 3 0 110 6 3 3 0 010-6z" fill="#F9FBFD"/></symbol><symbol id="icon-logo" viewBox="0 0 70 38">
<path fill-rule="evenodd" clip-rule="evenodd" d="M0.903517 31.125L14.6726 12.5429L18.4395 14.556L27.4026 0L32.9879 6.65881L35.0665 4.95532L43.1199 15.1755L48.8355 8.36191L64.8126 31.125L49.42 11.7689L47.0817 19.8984L49.225 26.3249L35.456 7.35558L35.3069 13.8279L43.1199 31.125L28.5064 4.33574L32.7282 18.8145L26.8181 4.72292L23.5706 14.0916L24.2198 7.97472L16.1013 30.0411L17.0753 20.75L13.6981 17.0338L0.903517 31.125Z"/>
<path fill-rule="evenodd" clip-rule="evenodd" d="M69.4414 34.0314C47.641 16.428 13.7091 40.6289 0 31.2961C15.0723 44.5215 50.3019 22.1644 69.4414 34.0314Z"/>
<path fill-rule="evenodd" clip-rule="evenodd" d="M70 35.4157C52.8956 24.5171 27.4568 39.6838 14.4189 36.1717C28.5467 43.0283 54.8482 27.8361 70 35.4157Z"/>
</symbol><symbol id="icon-motorboat" viewBox="0 0 42 15"><path d="M39.555 12.056L1.573 8.068c-.292-.03-.489.265-.338.5C3.663 12.34 9.41 15 16.1 15h22.658c.154 0 .29-.093.335-.23l.757-2.294c.065-.195-.077-.397-.295-.42zm2.335-6.538a.707.707 0 00-.497-.295l-10.5-1.305c-.378-.046-.735.204-.787.56-.051.357.219.686.602.734l1.188.147c.174.022.304.16.304.323V6.69c0 .194-.18.345-.387.324l-2.8-.28a.335.335 0 01-.313-.323V3.556c0-.064.02-.127.059-.18l1.224-1.71a.614.614 0 00.042-.656.706.706 0 00-.592-.358L14.733 0a.746.746 0 00-.603.273s-2.797 3.662-3.41 4.469a.359.359 0 01-.323.134l-9.623-.96a.735.735 0 00-.542.164.636.636 0 00-.232.485c0 .628.088 1.244.253 1.841a.35.35 0 00.304.243l39.548 4.152a.351.351 0 00.374-.228l1.49-4.512a.617.617 0 00-.08-.543zM20.2 1.905l-.545 3.562a.342.342 0 01-.378.279c-1.366-.129-6.497-.631-6.497-.631-.266-.027-.403-.31-.248-.514l2.405-3.137a.36.36 0 01.301-.136l4.633.205c.206.01.359.182.33.372zm7.59.476l-.431.6a.31.31 0 00-.059.18v3.04c0 .195-.18.346-.387.325l-5.555-.554c-.197-.02-.338-.188-.31-.37l.567-3.694c.025-.167.182-.288.363-.28l5.537.246c.272.012.426.295.274.507zM36.4 7.11c0 .193-.18.345-.387.324 0 0-1.453-.153-2.104-.224a.334.334 0 01-.309-.324v-.943c0-.197.186-.35.396-.324l2.1.261c.174.022.304.16.304.324v.906zm3.866-.328l-.26.786a.351.351 0 01-.371.228l-1.523-.152a.336.336 0 01-.312-.324v-.855c0-.197.186-.35.396-.323l1.782.22c.214.028.352.227.288.42z" fill="#011C40"/></symbol><symbol id="icon-phone"><path d="M18 13.42v3.536a1 1 0 01-.93.998c-.437.03-.794.046-1.07.046C7.163 18 0 10.837 0 2c0-.276.015-.633.046-1.07A1 1 0 011.044 0H4.58a.5.5 0 01.498.45c.023.23.044.413.064.552A13.9 13.9 0 006.35 5.003c.095.2.033.439-.147.567L4.045 7.112a13.047 13.047 0 006.844 6.844l1.54-2.154a.462.462 0 01.573-.149 13.9 13.9 0 004 1.205c.139.02.322.042.55.064a.5.5 0 01.449.498H18z" fill="#011C40"/></symbol><symbol id="icon-pin" viewBox="0 0 18 22"><path d="M15.364 15.556L9 22l-6.364-6.444a9.149 9.149 0 01-2.463-4.665 9.219 9.219 0 01.512-5.266A9.09 9.09 0 014 1.535 8.921 8.921 0 019 0c1.78 0 3.52.534 5 1.536a9.089 9.089 0 013.315 4.09 9.22 9.22 0 01.512 5.264 9.149 9.149 0 01-2.463 4.666zM9 11.138c.53 0 1.04-.214 1.414-.594a2.038 2.038 0 000-2.864A1.988 1.988 0 009 7.089c-.53 0-1.04.213-1.414.593A2.03 2.03 0 007 9.113c0 .537.21 1.052.586 1.431.375.38.884.594 1.414.594z" fill="#011C40"/></symbol><symbol id="icon-tick" viewBox="0 0 12 8">
<path d="M1 2.5L5.28571 7L11 1" stroke="#101A56"/>
</symbol><symbol id="icon-tw" viewBox="0 0 20 16"><path d="M19.999 1.9a8.33 8.33 0 01-2.357.635A4.063 4.063 0 0019.448.3a8.281 8.281 0 01-2.606.98A4.124 4.124 0 0014.513.054a4.162 4.162 0 00-2.605.424 4.065 4.065 0 00-1.804 1.898 3.978 3.978 0 00-.254 2.587 11.8 11.8 0 01-4.685-1.225A11.617 11.617 0 011.392.744a3.974 3.974 0 00-.555 2.03c0 1.4.724 2.637 1.825 3.36A4.14 4.14 0 01.804 5.63v.05a4 4 0 00.928 2.557A4.118 4.118 0 004.095 9.64a4.196 4.196 0 01-1.854.07 4.043 4.043 0 001.46 2.007 4.15 4.15 0 002.373.797 8.288 8.288 0 01-2.868 1.43A8.365 8.365 0 010 14.186 11.746 11.746 0 006.29 16c7.547 0 11.675-6.152 11.675-11.488 0-.174-.005-.35-.013-.522A8.262 8.262 0 0020 1.9h-.001z" fill="#F9FBFD"/></symbol></svg>

<svg xmlns="http://www.w3.org/2000/svg" xmlns:xlink="http://www.w3.org/1999/xlink"><symbol id="icon-allinclusive" viewBox="0 0 38 21"><path d="M28.753 2.215L26.44 0 16.073 9.933l2.314 2.215 10.366-9.933zM35.694 0L18.38 16.57l-6.819-6.528-2.313 2.215L18.379 21 38 2.215 35.694 0zM0 12.257L9.132 21l2.314-2.215-9.132-8.743L0 12.257z" fill="#011C40"/></symbol><symbol id="icon-boat" viewBox="0 0 27 32"><path d="M4.405 16.396l8.811-6.46a.6.6 0 01.655 0l8.854 6.46V8.688c.049-1.057-.75-1.954-1.785-2.003l-.047-.002H6.237c-1.035.024-1.856.9-1.833 1.958l.001.047v7.708zM15.746 0h-4.362v5.347h4.362V0z" fill="#011C40"/><path d="M24.296 30.164L27 21.03l-3.795-2.718-.262-.134-8.941-6.37v18.801h-.48l-.83-.044V11.807L0 21.03l2.792 9.09 1.612 1.87h2.754s5.089.007 6.364 0c1.298.022 3.603 0 3.603 0h5.688l1.483-1.826z" fill="#011C40"/></symbol><symbol id="icon-cross"><path d="M1 1l6.5 6.5M14 14L7.5 7.5m0 0L14 1 1 14" stroke="#011C40" stroke-width="2"/></symbol><symbol id="icon-fb"><path d="M7.333 11.5h2.62L11 7.5H7.333v-2c0-1.03 0-2 2.096-2H11V.14C10.659.097 9.369 0 8.007 0 5.163 0 3.143 1.657 3.143 4.7v2.8H0v4h3.143V20h4.19v-8.5z" fill="#F9FBFD"/></symbol><symbol id="icon-inst"><path d="M10 0c2.717 0 3.056.01 4.122.06 1.065.05 1.79.217 2.428.465.66.254 1.216.598 1.772 1.153.509.5.902 1.105 1.153 1.772.247.637.415 1.363.465 2.428.047 1.066.06 1.405.06 4.122 0 2.717-.01 3.056-.06 4.122-.05 1.065-.218 1.79-.465 2.428a4.883 4.883 0 01-1.153 1.772c-.5.508-1.105.902-1.772 1.153-.637.247-1.363.415-2.428.465-1.066.047-1.405.06-4.122.06-2.717 0-3.056-.01-4.122-.06-1.065-.05-1.79-.218-2.428-.465a4.89 4.89 0 01-1.772-1.153A4.904 4.904 0 01.525 16.55C.277 15.913.11 15.187.06 14.122.013 13.056 0 12.717 0 10c0-2.717.01-3.056.06-4.122.05-1.066.217-1.79.465-2.428a4.88 4.88 0 011.153-1.772A4.897 4.897 0 013.45.525C4.088.277 4.812.11 5.878.06 6.944.013 7.283 0 10 0zm0 5a5 5 0 100 10 5 5 0 000-10zm6.5-.25a1.25 1.25 0 10-2.5 0 1.25 1.25 0 002.5 0zM10 7a3 3 0 110 6 3 3 0 010-6z" fill="#F9FBFD"/></symbol><symbol id="icon-logo"><path clip-rule="evenodd" d="M.904 31.125l13.769-18.582 3.766 2.013L27.404 0l5.585 6.659 2.078-1.704 8.054 10.22 5.716-6.813 15.977 22.763L49.42 11.769l-2.338 8.13 2.143 6.426-13.769-18.97-.15 6.473 7.814 17.297-14.614-26.79 4.222 14.48-5.91-14.092-3.247 9.369.649-6.117L16.1 30.04l.974-9.291-3.377-3.716L.904 31.125z"/><path clip-rule="evenodd" d="M69.441 34.031C47.641 16.428 13.71 40.63 0 31.296c15.072 13.226 50.302-9.132 69.441 2.735z"/><path clip-rule="evenodd" d="M70 35.416c-17.104-10.899-42.543 4.268-55.581.756 14.128 6.856 40.43-8.336 55.581-.756z"/></symbol><symbol id="icon-motorboat" viewBox="0 0 42 15"><path d="M39.555 12.056L1.573 8.068c-.292-.03-.489.265-.338.5C3.663 12.34 9.41 15 16.1 15h22.658c.154 0 .29-.093.335-.23l.757-2.294c.065-.195-.077-.397-.295-.42zm2.335-6.538a.707.707 0 00-.497-.295l-10.5-1.305c-.378-.046-.735.204-.787.56-.051.357.219.686.602.734l1.188.147c.174.022.304.16.304.323V6.69c0 .194-.18.345-.387.324l-2.8-.28a.335.335 0 01-.313-.323V3.556c0-.064.02-.127.059-.18l1.224-1.71a.614.614 0 00.042-.656.706.706 0 00-.592-.358L14.733 0a.746.746 0 00-.603.273s-2.797 3.662-3.41 4.469a.359.359 0 01-.323.134l-9.623-.96a.735.735 0 00-.542.164.636.636 0 00-.232.485c0 .628.088 1.244.253 1.841a.35.35 0 00.304.243l39.548 4.152a.351.351 0 00.374-.228l1.49-4.512a.617.617 0 00-.08-.543zM20.2 1.905l-.545 3.562a.342.342 0 01-.378.279c-1.366-.129-6.497-.631-6.497-.631-.266-.027-.403-.31-.248-.514l2.405-3.137a.36.36 0 01.301-.136l4.633.205c.206.01.359.182.33.372zm7.59.476l-.431.6a.31.31 0 00-.059.18v3.04c0 .195-.18.346-.387.325l-5.555-.554c-.197-.02-.338-.188-.31-.37l.567-3.694c.025-.167.182-.288.363-.28l5.537.246c.272.012.426.295.274.507zM36.4 7.11c0 .193-.18.345-.387.324 0 0-1.453-.153-2.104-.224a.334.334 0 01-.309-.324v-.943c0-.197.186-.35.396-.324l2.1.261c.174.022.304.16.304.324v.906zm3.866-.328l-.26.786a.351.351 0 01-.371.228l-1.523-.152a.336.336 0 01-.312-.324v-.855c0-.197.186-.35.396-.323l1.782.22c.214.028.352.227.288.42z" fill="#011C40"/></symbol><symbol id="icon-phone"><path d="M18 13.42v3.536a1 1 0 01-.93.998c-.437.03-.794.046-1.07.046C7.163 18 0 10.837 0 2c0-.276.015-.633.046-1.07A1 1 0 011.044 0H4.58a.5.5 0 01.498.45c.023.23.044.413.064.552A13.9 13.9 0 006.35 5.003c.095.2.033.439-.147.567L4.045 7.112a13.047 13.047 0 006.844 6.844l1.54-2.154a.462.462 0 01.573-.149 13.9 13.9 0 004 1.205c.139.02.322.042.55.064a.5.5 0 01.449.498H18z" fill="#011C40"/></symbol><symbol id="icon-pin"><path d="M15.364 15.556L9 22l-6.364-6.444a9.149 9.149 0 01-2.463-4.665 9.219 9.219 0 01.512-5.266A9.09 9.09 0 014 1.535 8.921 8.921 0 019 0c1.78 0 3.52.534 5 1.536a9.089 9.089 0 013.315 4.09 9.22 9.22 0 01.512 5.264 9.149 9.149 0 01-2.463 4.666zM9 11.138c.53 0 1.04-.214 1.414-.594a2.038 2.038 0 000-2.864A1.988 1.988 0 009 7.089c-.53 0-1.04.213-1.414.593A2.03 2.03 0 007 9.113c0 .537.21 1.052.586 1.431.375.38.884.594 1.414.594z" fill="#011C40"/></symbol><symbol id="icon-tick"><path d="M1 2.5L5.286 7 11 1" stroke="#101A56"/></symbol><symbol id="icon-tw"><path d="M19.999 1.9a8.33 8.33 0 01-2.357.635A4.063 4.063 0 0019.448.3a8.281 8.281 0 01-2.606.98A4.124 4.124 0 0014.513.054a4.162 4.162 0 00-2.605.424 4.065 4.065 0 00-1.804 1.898 3.978 3.978 0 00-.254 2.587 11.8 11.8 0 01-4.685-1.225A11.617 11.617 0 011.392.744a3.974 3.974 0 00-.555 2.03c0 1.4.724 2.637 1.825 3.36A4.14 4.14 0 01.804 5.63v.05a4 4 0 00.928 2.557A4.118 4.118 0 004.095 9.64a4.196 4.196 0 01-1.854.07 4.043 4.043 0 001.46 2.007 4.15 4.15 0 002.373.797 8.288 8.288 0 01-2.868 1.43A8.365 8.365 0 010 14.186 11.746 11.746 0 006.29 16c7.547 0 11.675-6.152 11.675-11.488 0-.174-.005-.35-.013-.522A8.262 8.262 0 0020 1.9h-.001z" fill="#F9FBFD"/></symbol></svg>
